storage/app/icons/phosphoricons/duotone/dresser-duotone.svg

<svg xmlns="http://www.w3.org/2000/svg" fill="currentColor" viewBox="0 0 256 256"><path d="M208 40v176a8 8 0 0 1-8 8H56a8 8 0 0 1-8-8V40a8 8 0 0 1 8-8h144a8 8 0 0 1 8 8" opacity=".2"/><path d="M144 192a8 8 0 0 1-8 8h-16a8 8 0 0 1 0-16h16a8 8 0 0 1 8 8M120 72h16a8 8 0 0 0 0-16h-16a8 8 0 0 0 0 16m16 48h-16a8 8 0 0 0 0 16h16a8 8 0 0 0 0-16m80-80v176a16 16 0 0 1-16 16H56a16 16 0 0 1-16-16V40a16 16 0 0 1 16-16h144a16 16 0 0 1 16 16M56 152h144v-48H56Zm0-112v48h144V40Zm144 176v-48H56v48z"/></svg>

<svg xmlns="http://www.w3.org/2000/svg" viewBox="0 0 256 256" fill="currentColor"><path d="M208,40V216a8,8,0,0,1-8,8H56a8,8,0,0,1-8-8V40a8,8,0,0,1,8-8H200A8,8,0,0,1,208,40Z" opacity="0.2"/><path d="M144,192a8,8,0,0,1-8,8H120a8,8,0,0,1,0-16h16A8,8,0,0,1,144,192ZM120,72h16a8,8,0,0,0,0-16H120a8,8,0,0,0,0,16Zm16,48H120a8,8,0,0,0,0,16h16a8,8,0,0,0,0-16Zm80-80V216a16,16,0,0,1-16,16H56a16,16,0,0,1-16-16V40A16,16,0,0,1,56,24H200A16,16,0,0,1,216,40ZM56,152H200V104H56ZM56,40V88H200V40ZM200,216V168H56v48H200Z"/></svg>
